X:1
T:Title
%%score { ( 1 4 ) | ( 2 3 ) }
L:1/8
M:6/4
K:A
V:1 treble nm="Grand Piano"
V:4 treble 
V:2 bass 
V:3 bass 
V:1
 z6 z4[Q:1/4=114] [CE][CF] | [CE]2 C2 [CE]2 [CA]2 [CE]2 [CA]2 | [Ec]3 [DB] [CA]2 [Ec]4 [DB][DB] | %3
 [EA]2 [EG]2 [EA]2 B2 A2 F2 | [CE]6- [CE]4 [CE]F | [A,CE]2 [E,C]2[K:treble] [A,CE]2 A2 E2 A2 | %6
 c3 B c2 [Fd]4 [Fd]2 | c2 E2 c2 B E3 B2 | [CA]12 | G G3 A2 [GB] [GB]3 z2 | %10
 A2 A2 B2 [^Ec]4 [EB][EB] | [FA]2 [FG]2 [FA]2 [^Dc]2 [DB]2 [DA]2 | [DB]12 | %13
 [CE] [Ec]3 [DB]2 [CA]4 EE |[M:5/4] F [Fd]3 [Ec]2 B4 |[M:1/4] E2 | %16
[M:6/4] [CE=Ge]6- [CEGe]4 [CFA]2 |[M:7/4] [Fd]2- [Fd]2- [Fd]2- [Fd]6 [Fc]2 | %18
[M:6/4] [FB]3 [DB] [DB]2 [^DB]2 [B,DF]2 [B,=DG]2 |[M:5/4] A2- A2- A6 |] %20
V:2
 z6 z4 [A,,A,][A,,A,] | [A,,A,]2 [A,,A,]2 [A,,A,]2 [A,,E,]2 [A,,E,]2 [A,,E,]2 | %2
 [A,,A,]3 [A,,A,] [A,,A,]2 [A,,A,]4 [B,,G,]2 | [C,A,]2 [C,A,]2 [C,A,]2 [D,F,D]2 [D,F,D]2 [D,A,D]2 | %4
 [A,,A,]6- [A,,A,]4 z C | A,,2 A,,2 A,,2[K:treble] [A,CE]2 [A,C]2 [A,CE]2 | %6
 [A,EA]3 [A,DG] [A,C=G]2[K:bass] [D,A,]4 [D,A,]2 | %7
 [E,A,E]2 [E,A,C]2 [E,A,E]2 [E,G,D] .[E,B,D]3 [E,G,D]2 | [A,,A,]12 | %9
 [E,B,E] [E,B,E]3 [E,CE]2 [E,D] [E,D]3 z2 | [F,CF]2 [F,A,C]2 [F,A,F]2 [C,G,]4 [C,G,][C,G,] | %11
 [D,F,]2 [D,B,]2 [D,A,]2 [B,,A,]2 [B,,F,]2 [B,,F,]2 | [E,G,]4 F,2 G,4 [E,G,D]2 | %13
 [A,,A,] [A,,A,]3 [A,,E,]2 [A,,E,]4 [C,A,][C,A,] |[M:5/4] [D,A,D] [D,A,]3 [A,,A,]2 [E,G,E]4 | %15
[M:1/4] E,2 |[M:6/4] A,,2 C,2 E,2 A,4 F,2 |[M:7/4] B,2- [D,B,-]2 [F,B,]2 B,6 [C,^A,]2 | %18
[M:6/4] [D,B,]3 [D,F,] [D,F,]2 [B,,F,]2 B,,2 E,2 |[M:5/4] z2 z G, F,2 E,4 |] %20
V:3
 x12 | x12 | x12 | x12 | z6 z4 [A,,A,]2 | x6[K:treble] x6 | x6[K:bass] x6 | x12 | x12 | x12 | x12 | %11
 x12 | x12 | x12 |[M:5/4] x10 |[M:1/4] x2 |[M:6/4] x12 |[M:7/4] B,,2 z2 z2 z2 z2 z4 |[M:6/4] x12 | %19
[M:5/4] A,,2- A,,2- A,,6 |] %20
V:4
 x12 | x12 | x12 | x12 | x12 | x4[K:treble] x8 | x12 | x12 | x12 | x12 | x12 | x12 | %12
 z4 A,2 B,4 E2 | x12 |[M:5/4] x10 |[M:1/4] x2 |[M:6/4] x12 |[M:7/4] x14 |[M:6/4] x12 | %19
[M:5/4] [A,C]3 E D2 C4 |] %20

